img/help.svg

<svg width="23" height="37" viewBox="0 0 23 37" fill="none" xmlns="http://www.w3.org/2000/svg">
<g filter="url(#filter0_d_601_647)">
<path d="M8.43034 24.1377H13.7583V23.6097C13.7583 17.9457 22.4943 18.4737 22.4943 10.0737C22.4943 4.98575 18.6543 0.953747 12.2223 0.953747C5.55034 0.953747 1.51834 5.27375 0.99034 11.9937H6.84634C7.27834 9.35374 8.81434 7.91375 11.6943 7.91375C14.3823 7.91375 15.9183 9.40175 15.9183 11.3697C15.9183 15.6897 8.43034 15.8817 8.43034 23.4177V24.1377ZM11.2623 34.7457C13.4703 34.7457 15.1983 33.2577 15.1983 30.8097C15.1983 28.3617 13.4703 26.8257 11.2623 26.8257C9.05434 26.8257 7.32634 28.3617 7.32634 30.8097C7.32634 33.2577 9.05434 34.7457 11.2623 34.7457Z" fill="#F8F6D0"/>
</g>
<defs>
<filter id="filter0_d_601_647" x="0.990356" y="0.953735" width="21.504" height="35.792" filterUnits="userSpaceOnUse" color-interpolation-filters="sRGB">
<feFlood flood-opacity="0" result="BackgroundImageFix"/>
<feColorMatrix in="SourceAlpha" type="matrix" values="0 0 0 0 0 0 0 0 0 0 0 0 0 0 0 0 0 0 127 0" result="hardAlpha"/>
<feOffset dy="2"/>
<feComposite in2="hardAlpha" operator="out"/>
<feColorMatrix type="matrix" values="0 0 0 0 0 0 0 0 0 0 0 0 0 0 0 0 0 0 0.25 0"/>
<feBlend mode="normal" in2="BackgroundImageFix" result="effect1_dropShadow_601_647"/>
<feBlend mode="normal" in="SourceGraphic" in2="effect1_dropShadow_601_647" result="shape"/>
</filter>
</defs>
</svg>

<svg width="23" height="37" fill="none" xmlns="http://www.w3.org/2000/svg"><g filter="url(#a)"><path d="M8.43 24.138h5.328v-.528c0-5.664 8.736-5.136 8.736-13.536 0-5.088-3.84-9.12-10.272-9.12C5.55.954 1.518 5.274.99 11.994h5.856c.432-2.64 1.968-4.08 4.848-4.08 2.688 0 4.224 1.488 4.224 3.456 0 4.32-7.488 4.512-7.488 12.048v.72Zm2.832 10.608c2.208 0 3.936-1.488 3.936-3.936s-1.728-3.984-3.936-3.984-3.936 1.536-3.936 3.984 1.728 3.936 3.936 3.936Z" fill="#F8F6D0"/></g><defs><filter id="a" x=".99" y=".954" width="21.504" height="35.792" filterUnits="userSpaceOnUse" color-interpolation-filters="sRGB"><feFlood flood-opacity="0" result="BackgroundImageFix"/><feColorMatrix in="SourceAlpha" values="0 0 0 0 0 0 0 0 0 0 0 0 0 0 0 0 0 0 127 0" result="hardAlpha"/><feOffset dy="2"/><feComposite in2="hardAlpha" operator="out"/><feColorMatrix values="0 0 0 0 0 0 0 0 0 0 0 0 0 0 0 0 0 0 0.25 0"/><feBlend in2="BackgroundImageFix" result="effect1_dropShadow_601_647"/><feBlend in="SourceGraphic" in2="effect1_dropShadow_601_647" result="shape"/></filter></defs></svg>
